X: 5
T: Lord McDonald's
R: reel
M: 4/4
L: 1/8
K: Gmaj
|: DGBG AGBG | DGBG AGEG | DGBG AGBG | DEDC B,G,G,2|
DGBG AGBG | DGBG AGEc | BAGF GFED | B,DGA BGG2 :|
|: Bd~d2 dBGA | Bdef gedc | Bd~d2 dBGB | ABcA BGG2 |
Bd~d2 dBGA | Bdef gedc | Bd~d2 gd~d2 | cBAc BGG2 :|
|: dgbg agbg | dgb/2a/2g ageg | dgbg agbg | dedc BGG2 |
dgbg agbg | dgb/2a/2g agef | gedB AGEG | DEGA BG G2 :|


Tune 507	Setting 23658

